X:1
T:Title
%%score { ( 1 3 ) | ( 2 4 ) }
L:1/8
M:6/8
K:F
V:1 treble nm="Grand Piano"
V:3 treble 
V:2 bass 
V:4 bass 
V:1
 z3 z2[Q:1/4=87] [DF] | [DF][DF][DF] [DF][^CE][DF] | [_EG]2 [EG] [GB]2 [GB] | AAA ABc | %4
 [Fd]3- [Fd]2 [DFB] | [DF][DF][DF] [DF][^CE][DF] | [_EG]2 [EG] [GB]2 [GB] | AAA ABc | %8
[M:5/8] [DFB]-[DFB]- [DFB]3 |[M:3/4] [^FA][FA] [FA] [Fc]3 | BB B d3 | [Gd]2 [Gc] [Ed]2 [Ec] | c6 | %13
 FF F[DF] [^CE][DF] | [_EG]2 [G_e] [Ge]3 | d>c BA Bc |[M:5/8] [DB]-[DB]- [DB]3 |] %17
V:2
 z3 z2 [B,,B,] | [B,,B,][B,,B,][B,,B,] [B,,B,][B,,B,][B,,B,] | [_E,B,]2 [E,B,] [E,_E]2 [=E,C] | %3
 [F,CF][F,CF][F,CF] [F,CF][F,G,F][F,A,F] | [B,,B,]3- [B,,B,]2 B,, | %5
 [B,,B,][B,,B,][B,,B,] [B,,B,][B,,B,][B,,B,] | [_E,B,]2 [E,B,] [E,_E]2 [=E,C] | %7
 [F,CF][F,CF][F,CF] [F,CF][F,DF][F,_EF] |[M:5/8] B,,-B,,- B,,3 |[M:3/4] [D,D][D,D] [D,D] [D,D]3 | %10
 [G,DG][G,DG] [G,DG] [G,B,G]3 | [C,B,]2 [C,B,] [C,B,]2 [C,B,] | .[A,F]2 z2 z2 | %13
 [B,D][B,D] [B,D][B,,B,] [B,,B,][B,,B,] | [_E,B,]2 [E,B,] [E,B,]3 | %15
 [F,B,F]>[F,_E] [F,D][F,C] [F,D][F,E] |[M:5/8] [B,,F,]-[B,,F,]- [B,,F,]3 |] %17
V:3
 x6 | x6 | x6 | x6 | x6 | x6 | x6 | x6 |[M:5/8] x5 |[M:3/4] x6 | x6 | x6 | z A G F2 _E | x6 | x6 | %15
 x6 |[M:5/8] x5 |] %17
V:4
 x6 | x6 | x6 | x6 | x6 | x6 | x6 | x6 |[M:5/8] x5 |[M:3/4] x6 | x6 | x6 | %12
 F,-[F,-C] [F,-B,] [F,A,]3 | x6 | x6 | x6 |[M:5/8] x5 |] %17

